X:105
M:C|
L:1/8
K:A Minor
a|g<e e>d c>de>a|g<e e<d c<A A>a|g<e e>d c>de>g|e<a a>^g a<A A:|
c2 c>e d2 d>e|c2 c>e d>BG>B|c>ec>e d<gd<g|e<a a>^g aAA||
|:c|G<E E>D C>DE>A|G<E E>D C<A, A,>A|G<E E>D C>DE>G|
E<A A>^G A>A, A:|
E<A A>^G A<A, A,>B|c>ec>e d>ed>e|c>ec>e d>BG>B|
c>ec>e d>gd>g|e<a a>^g a<AA||

